assets/img/braze_icons/strikethrough-square.svg

<svg fill="none" height="24" viewBox="0 0 24 24" width="24" xmlns="http://www.w3.org/2000/svg"><path clip-rule="evenodd" d="m7.7587 2h8.4826c.805-.00001 1.4693-.00002 2.0105.0442.5621.04592 1.0788.14448 1.5642.39178.7526.38349 1.3645.99541 1.748 1.74806.2473.48534.3459 1.00204.3918 1.56414.0442.54119.0442 1.20554.0442 2.0105v8.48262c0 .805 0 1.4693-.0442 2.0105-.0459.5621-.1445 1.0788-.3918 1.5642-.3835.7526-.9954 1.3645-1.748 1.748-.4854.2473-1.0021.3459-1.5642.3918-.5412.0442-1.2055.0442-2.0105.0442h-8.48262c-.80496 0-1.46931 0-2.0105-.0442-.5621-.0459-1.0788-.1445-1.56414-.3918-.75265-.3835-1.36457-.9954-1.74806-1.748-.2473-.4854-.34586-1.0021-.39178-1.5642-.04422-.5412-.04421-1.2055-.0442-2.0105v-8.48261c-.00001-.80496-.00002-1.46933.0442-2.01051.04592-.5621.14448-1.0788.39178-1.56414.38349-.75265.99541-1.36457 1.74806-1.74806.48534-.2473 1.00204-.34586 1.56414-.39178.54118-.04422 1.20557-.04421 2.01052-.0442zm.03286 6.09963c.53918-1.23404 1.77156-2.09963 3.20834-2.09963h2.1667c1.4231 0 2.6355.89138 3.1141 2.14277.1973.51584-.0609 1.09395-.5768 1.29125-.5158.19729-1.0939-.06094-1.2912-.57679-.1924-.50285-.6791-.85723-1.2461-.85723h-2.1667c-.6135 0-1.14325.36851-1.37563.90037-.22112.50609-.81064.7371-1.31673.51598-.50608-.22112-.7371-.81063-.51598-1.31672zm-2.79156 3.90037c0 .5523.44772 1 1 1h6.9999c.8284 0 1.5.6716 1.5 1.5s-.6716 1.5-1.5 1.5h-2.1667c-.567 0-1.05376-.3544-1.24608-.8572-.1973-.5159-.77541-.7741-1.29125-.5768s-.77408.7754-.57678 1.2912c.47862 1.2514 1.69104 2.1428 3.11411 2.1428h2.1667c1.933 0 3.5-1.567 3.5-3.5 0-.5368-.1209-1.0454-.3368-1.5h1.8369c.5523 0 1-.4477 1-1s-.4477-1-1-1h-12c-.55228 0-1 .4477-1 1z" fill="#801ed7" fill-rule="evenodd"/></svg>

<svg width="24" height="24" viewBox="0 0 24 24" fill="none" xmlns="http://www.w3.org/2000/svg">
<path fill-rule="evenodd" clip-rule="evenodd" d="M7.7587 2H16.2413C17.0463 1.99999 17.7106 1.99998 18.2518 2.0442C18.8139 2.09012 19.3306 2.18868 19.816 2.43598C20.5686 2.81947 21.1805 3.43139 21.564 4.18404C21.8113 4.66938 21.9099 5.18608 21.9558 5.74818C22 6.28937 22 6.95372 22 7.75868V16.2413C22 17.0463 22 17.7106 21.9558 18.2518C21.9099 18.8139 21.8113 19.3306 21.564 19.816C21.1805 20.5686 20.5686 21.1805 19.816 21.564C19.3306 21.8113 18.8139 21.9099 18.2518 21.9558C17.7106 22 17.0463 22 16.2413 22H7.75868C6.95372 22 6.28937 22 5.74818 21.9558C5.18608 21.9099 4.66938 21.8113 4.18404 21.564C3.43139 21.1805 2.81947 20.5686 2.43598 19.816C2.18868 19.3306 2.09012 18.8139 2.0442 18.2518C1.99998 17.7106 1.99999 17.0463 2 16.2413V7.75869C1.99999 6.95373 1.99998 6.28936 2.0442 5.74818C2.09012 5.18608 2.18868 4.66938 2.43598 4.18404C2.81947 3.43139 3.43139 2.81947 4.18404 2.43598C4.66938 2.18868 5.18608 2.09012 5.74818 2.0442C6.28936 1.99998 6.95375 1.99999 7.7587 2ZM7.79156 8.09963C8.33074 6.86559 9.56312 6 10.9999 6H13.1666C14.5897 6 15.8021 6.89138 16.2807 8.14277C16.478 8.65861 16.2198 9.23672 15.7039 9.43402C15.1881 9.63131 14.61 9.37308 14.4127 8.85723C14.2203 8.35438 13.7336 8 13.1666 8H10.9999C10.3864 8 9.85665 8.36851 9.62427 8.90037C9.40315 9.40646 8.81363 9.63747 8.30754 9.41635C7.80146 9.19523 7.57044 8.60572 7.79156 8.09963ZM5 12C5 12.5523 5.44772 13 6 13H12.9999C13.8283 13 14.4999 13.6716 14.4999 14.5C14.4999 15.3284 13.8283 16 12.9999 16H10.8332C10.2662 16 9.77944 15.6456 9.58712 15.1428C9.38982 14.6269 8.81171 14.3687 8.29587 14.566C7.78003 14.7633 7.52179 15.3414 7.71909 15.8572C8.19771 17.1086 9.41013 18 10.8332 18H12.9999C14.9329 18 16.4999 16.433 16.4999 14.5C16.4999 13.9632 16.379 13.4546 16.1631 13H18C18.5523 13 19 12.5523 19 12C19 11.4477 18.5523 11 18 11H6C5.44772 11 5 11.4477 5 12Z" fill="#801ED7"/>
</svg>
